X:4
T:Laigo
Z:midi2abc
M:2/2
L:1/8
R:Schottische
Q:1/4=100
K:C
c2 de f2 d2|gf ga gf ed|c2 de f2 d2|gf ga g4:|
de fd g2 fe|de dc B2 G2|de fd g2 fe|de dB c4:|
<end>
<start>
